svg/emoji_u1f9f8.svg

<?xml version="1.0" encoding="utf-8"?>
<!-- Generator: Adobe Illustrator 25.2.3, SVG Export Plug-In . SVG Version: 6.00 Build 0)  -->
<svg version="1.1" id="Layer_5" xmlns="http://www.w3.org/2000/svg" xmlns:xlink="http://www.w3.org/1999/xlink" x="0px" y="0px"
	 viewBox="0 0 128 128" style="enable-background:new 0 0 128 128;" xml:space="preserve">
<g>
	<path style="fill:#A65F3E;" d="M113.95,98.69c-2.66-4.98-7.67-6.19-13.15-5.06c-0.1,0.02-0.22,0.05-0.34,0.09
		c1.57-2.83,2.78-5.6,2.97-10.71c0.45-12.58-4.74-18.76-10.12-23.33c-11.15-9.47-43.38-6.35-43.88-6.33
		c-4.14,0.17-9.91,2.7-13.04,5.46c-6.9,6.01-12.22,14.48-12.61,23.82c-0.21,3.38,0.38,7.39,1.99,10.63
		c-4.33-0.54-8.91,0.95-11.77,6.05c-2.32,4.13-1.66,9.19,0.86,13.85c3.41,6.32,11.16,12.29,18.83,10.52
		c7.78-1.79,14.53-9.5,21.4-13.57c0.49-0.29,1.07-0.39,1.64-0.33c4.28,0.49,10.3,0.49,14.08,0.08c0.79-0.08,1.57,0.18,2.13,0.73
		c0.71,0.7,1.42,1.36,1.68,1.6c4.31,3.97,9.24,8.26,14.72,10.45c9.28,3.7,18.49-0.44,23.48-9.3
		C115.44,108.68,116.59,103.62,113.95,98.69z"/>
	<g>
		<path style="fill:#703B26;" d="M84.86,105.17c-0.44,0-0.89-0.04-1.34-0.12c-4.05-0.75-6.46-4.78-6.75-8.38
			c-0.29-3.64,1.11-7.09,2.51-9.98c0.25-0.52,2.85-5.29,3.55-8.53c1.05-4.89,0.17-9.35-0.14-11.34c-0.31-2,1.21-1.66,1.87-0.23
			c1.62,3.51,1.91,8.42,1.18,12.17c-0.67,3.43-3.54,8.71-3.79,9.23c-1.23,2.54-2.46,5.52-2.23,8.45c0.19,2.41,1.77,5.22,4.33,5.69
			c2.77,0.51,4.99-0.49,7.33-2.63l2.52,0.96C92.05,102.16,88.74,105.17,84.86,105.17z"/>
	</g>
	<path style="fill:#703B26;" d="M45.95,81.45c-0.6-3.25-1.02-7.36,1.02-10.27l-1.49-2.87c-3.78,3.83-3.16,9.85-2.45,13.67
		c0.09,0.51,1.56,8.03,0.75,10.99c-0.93,3.4-3.95,6.13-7.39,6.83c-1.86-2.97-4.65-5.1-7.73-6.34c-3-1.21-7.31-0.88-9.76,0.91
		c2.64-0.73,5.72-0.56,8.3,0.67c3.59,1.7,5.81,4.03,7.84,8.98c0.67,1.63,1.2,4.23,2.75,3.78c0.89-0.25,1.59-1.15,1.25-2.58
		c-0.36-1.51-0.9-2.54-0.9-2.54s5.48-0.94,8.51-8.93C48.2,89.65,46.05,81.95,45.95,81.45z"/>
	<g>
		<path style="fill:#703B26;" d="M91.44,107.55c-0.29,0.54-0.7,0.96-1.29,0.95c-0.91-0.01-1.49-1.08-1.5-2
			c-0.04-7.24,7.89-13.85,15.19-13.26c-5.71,1.22-9.93,5.88-11.97,13.25C91.77,106.84,91.62,107.21,91.44,107.55z"/>
	</g>
	<g>
		<path style="fill:#703B26;" d="M54.02,80.33l-2.2-2.39c3.6-3.43,8.51-8.15,9.36-12.41l2.91,0.58c-0.95,4.78-5.02,10.55-8.67,14.25
			C55.03,80.76,54.39,80.74,54.02,80.33z"/>
	</g>
	<path style="fill:#FFCA28;" d="M71.39,65.14c6.05-1.32,10.47-5.03,10.75-9.66l-32.92-1.99c-0.21,3.53,2.03,6.82,5.7,9.08
		c-4.57,0.78-7.69,1.95-9.02,2.51c-0.73,0.31-1.21,1.02-1.21,1.82c0.01,3.79,4.06,11.53,6.97,12c2.88,0.47,9.37-7.89,11.76-11.49
		c0,5.6,0.84,15.5,2.52,16.28c3.41,1.57,14.21-4.27,14.53-7.32C80.72,73.98,75.93,69.3,71.39,65.14z"/>
	<g>
		<g>
			<path style="fill:#A65F3E;" d="M100.19,19.5c-0.25-4.28-3.1-8.1-7.13-9.55c-3.27-1.17-6.54-0.76-9.17,0.72
				c-1.2,0.67-2.64,0.78-3.88,0.16c-1.92-0.96-5.25-2.26-9.99-2.86c-4.72-0.6-8.37-0.08-10.56,0.44c-1.42,0.34-2.88-0.16-3.91-1.2
				C53.57,5.24,50.84,4,47.73,4c-5.13,0-9.68,3.74-10.7,8.77c-0.64,3.13,0.11,6.17,1.79,8.53c1.46,2.07,1.75,4.78,0.81,7.14
				c-0.95,2.38-2.76,7.61-2.72,10.51c0.15,12.65,11.66,19.21,26.88,21.14s28.83-2.82,31.39-15.91c0.58-2.96,0.42-6.83-0.09-9.73
				c-0.42-2.39,0.37-4.86,2.06-6.61C99.17,25.74,100.39,22.81,100.19,19.5z"/>
			<path style="fill:#874D36;" d="M41.35,15.68c0.41-3.19,3.18-5.46,6.21-5.08c1.15,0.15,4.6,1.5,3.42,3.3
				c-0.22,0.33-0.55,0.56-0.87,0.79c-2.15,1.56-4.08,3.46-5.68,5.63c-0.29,0.4-0.73,0.85-1.16,0.66
				C41.75,20.33,41.17,17.14,41.35,15.68z"/>
			<path style="fill:#874D36;" d="M95.29,22.53c0.41-3.19-1.72-6.09-4.74-6.47c-1.15-0.15-4.83,0.3-4.13,2.34
				c0.13,0.38,0.39,0.68,0.64,0.99c1.69,2.04,3.08,4.37,4.09,6.88c0.18,0.46,0.49,1.01,0.96,0.93C93.74,26.94,95.1,24,95.29,22.53z"
				/>
			<path style="opacity:0.7;fill:#F29657;" d="M61.95,33.17c-2.95,3.39-5.17,5.31-7.26,8.3c-3.55,5.08-1.08,13.91,8.98,15.22
				c7.01,0.91,13.05-2.41,13.17-9.12c0.08-4.25-3.67-9.92-5.61-13.58C68.81,29.45,65.02,29.64,61.95,33.17z"/>
			<g>
				
					<ellipse transform="matrix(0.141 -0.99 0.99 0.141 14.346 79.5189)" style="opacity:0.55;" cx="53" cy="31.49" rx="4.78" ry="4.06"/>
				
					<ellipse transform="matrix(0.141 -0.99 0.99 0.141 34.5657 109.8343)" style="opacity:0.55;" cx="80.58" cy="35" rx="4.78" ry="4.06"/>
			</g>
			<path style="opacity:0.55;fill:none;stroke:#000000;stroke-width:2.4465;stroke-linecap:round;stroke-miterlimit:10;" d="
				M57.59,47.22c1.9,5.61,11.26,6.83,14.61,1.87"/>
			<path style="opacity:0.55;" d="M67.78,47.83c-2.41,0.53-4.86,0.11-6.47-1.91c-1.21-1.51-2.46-4.04-0.74-5.83
				c2.44-2.5,8.51-1.75,10.71,0.73C72.53,42.93,70.06,47.35,67.78,47.83z"/>
		</g>
	</g>
	<path style="opacity:0.7;fill:#F29657;" d="M16.2,106.55c0.03-1.83,1.41-4.49,3.13-5.13c4.1-1.55,8.56,0.32,11.03,5.93
		c2.04,4.64,2.24,9.51,1.37,10.82c-1.29,1.93-3.17,1.62-4.47,1.39c-2.37-0.42-4.43-1.85-6.29-3.39
		C19.08,114.6,16.12,111.42,16.2,106.55z"/>
	<path style="opacity:0.7;fill:#F29657;" d="M111.76,106.47c-0.06-1.83-1.48-4.46-3.2-5.09c-4.12-1.49-8.56,0.44-10.94,6.09
		c-1.97,4.67-1.75,8.96-1.48,9.87c0.84,2.81,3.47,2.54,4.76,2.29c2.36-0.46,4.4-1.92,6.24-3.48
		C109.01,114.57,111.91,111.35,111.76,106.47z"/>
</g>
</svg>

<?xml version="1.0" encoding="UTF-8" standalone="no"?>
<!DOCTYPE svg PUBLIC "-//W3C//DTD SVG 1.1//EN" "http://www.w3.org/Graphics/SVG/1.1/DTD/svg11.dtd">
<svg width="100%" height="100%" viewBox="0 0 128 128" version="1.1" xmlns="http://www.w3.org/2000/svg" xmlns:xlink="http://www.w3.org/1999/xlink" xml:space="preserve" xmlns:serif="http://www.serif.com/" style="fill-rule:evenodd;clip-rule:evenodd;stroke-linecap:round;stroke-miterlimit:10;">
    <g>
        <path d="M113.95,98.69C111.29,93.71 106.28,92.5 100.8,93.63C100.7,93.65 100.58,93.68 100.46,93.72C102.03,90.89 103.24,88.12 103.43,83.01C103.88,70.43 98.69,64.25 93.31,59.68C82.16,50.21 49.93,53.33 49.43,53.35C45.29,53.52 39.52,56.05 36.39,58.81C29.49,64.82 24.17,73.29 23.78,82.63C23.57,86.01 24.16,90.02 25.77,93.26C21.44,92.72 16.86,94.21 14,99.31C11.68,103.44 12.34,108.5 14.86,113.16C18.27,119.48 26.02,125.45 33.69,123.68C41.47,121.89 48.22,114.18 55.09,110.11C55.58,109.82 56.16,109.72 56.73,109.78C61.01,110.27 67.03,110.27 70.81,109.86C71.6,109.78 72.38,110.04 72.94,110.59C73.65,111.29 74.36,111.95 74.62,112.19C78.93,116.16 83.86,120.45 89.34,122.64C98.62,126.34 107.83,122.2 112.82,113.34C115.44,108.68 116.59,103.62 113.95,98.69Z" style="fill:rgb(133,92,82);fill-rule:nonzero;"/>
        <path d="M113.95,98.69C111.29,93.71 106.28,92.5 100.8,93.63C100.7,93.65 100.58,93.68 100.46,93.72C102.03,90.89 103.24,88.12 103.43,83.01C103.88,70.43 98.69,64.25 93.31,59.68C82.16,50.21 49.93,53.33 49.43,53.35C45.29,53.52 39.52,56.05 36.39,58.81C29.49,64.82 24.17,73.29 23.78,82.63C23.57,86.01 24.16,90.02 25.77,93.26C21.44,92.72 16.86,94.21 14,99.31C11.68,103.44 12.34,108.5 14.86,113.16C18.27,119.48 26.02,125.45 33.69,123.68C41.47,121.89 48.22,114.18 55.09,110.11C55.58,109.82 56.16,109.72 56.73,109.78C61.01,110.27 67.03,110.27 70.81,109.86C71.6,109.78 72.38,110.04 72.94,110.59C73.65,111.29 74.36,111.95 74.62,112.19C78.93,116.16 83.86,120.45 89.34,122.64C98.62,126.34 107.83,122.2 112.82,113.34C115.44,108.68 116.59,103.62 113.95,98.69Z" style="fill:rgb(231,102,43);fill-opacity:0.3;fill-rule:nonzero;"/>
        <g>
            <path d="M84.86,105.17C84.42,105.17 83.97,105.13 83.52,105.05C79.47,104.3 77.06,100.27 76.77,96.67C76.48,93.03 77.88,89.58 79.28,86.69C79.53,86.17 82.13,81.4 82.83,78.16C83.88,73.27 83,68.81 82.69,66.82C82.38,64.82 83.9,65.16 84.56,66.59C86.18,70.1 86.47,75.01 85.74,78.76C85.07,82.19 82.2,87.47 81.95,87.99C80.72,90.53 79.49,93.51 79.72,96.44C79.91,98.85 81.49,101.66 84.05,102.13C86.82,102.64 89.04,101.64 91.38,99.5L93.9,100.46C92.05,102.16 88.74,105.17 84.86,105.17Z" style="fill:rgb(112,59,38);fill-rule:nonzero;"/>
        </g>
        <path d="M45.95,81.45C45.35,78.2 44.93,74.09 46.97,71.18L45.48,68.31C41.7,72.14 42.32,78.16 43.03,81.98C43.12,82.49 44.59,90.01 43.78,92.97C42.85,96.37 39.83,99.1 36.39,99.8C34.53,96.83 31.74,94.7 28.66,93.46C25.66,92.25 21.35,92.58 18.9,94.37C21.54,93.64 24.62,93.81 27.2,95.04C30.79,96.74 33.01,99.07 35.04,104.02C35.71,105.65 36.24,108.25 37.79,107.8C38.68,107.55 39.38,106.65 39.04,105.22C38.68,103.71 38.14,102.68 38.14,102.68C38.14,102.68 43.62,101.74 46.65,93.75C48.2,89.65 46.05,81.95 45.95,81.45Z" style="fill:rgb(112,59,38);fill-rule:nonzero;"/>
        <g>
            <path d="M91.44,107.55C91.15,108.09 90.74,108.51 90.15,108.5C89.24,108.49 88.66,107.42 88.65,106.5C88.61,99.26 96.54,92.65 103.84,93.24C98.13,94.46 93.91,99.12 91.87,106.49C91.77,106.84 91.62,107.21 91.44,107.55Z" style="fill:rgb(112,59,38);fill-rule:nonzero;"/>
        </g>
        <g>
            <path d="M54.02,80.33L51.82,77.94C55.42,74.51 60.33,69.79 61.18,65.53L64.09,66.11C63.14,70.89 59.07,76.66 55.42,80.36C55.03,80.76 54.39,80.74 54.02,80.33Z" style="fill:rgb(112,59,38);fill-rule:nonzero;"/>
        </g>
        <path d="M71.39,65.14C77.44,63.82 81.86,60.11 82.14,55.48L49.22,53.49C49.01,57.02 51.25,60.31 54.92,62.57C50.35,63.35 47.23,64.52 45.9,65.08C45.17,65.39 44.69,66.1 44.69,66.9C44.7,70.69 48.75,78.43 51.66,78.9C54.54,79.37 61.03,71.01 63.42,67.41C63.42,73.01 64.26,82.91 65.94,83.69C69.35,85.26 80.15,79.42 80.47,76.37C80.72,73.98 75.93,69.3 71.39,65.14Z" style="fill:rgb(255,202,40);fill-rule:nonzero;"/>
        <g>
            <g>
                <path d="M100.19,19.5C99.94,15.22 97.09,11.4 93.06,9.95C89.79,8.78 86.52,9.19 83.89,10.67C82.69,11.34 81.25,11.45 80.01,10.83C78.09,9.87 74.76,8.57 70.02,7.97C65.3,7.37 61.65,7.89 59.46,8.41C58.04,8.75 56.58,8.25 55.55,7.21C53.57,5.24 50.84,4 47.73,4C42.6,4 38.05,7.74 37.03,12.77C36.39,15.9 37.14,18.94 38.82,21.3C40.28,23.37 40.57,26.08 39.63,28.44C38.68,30.82 36.87,36.05 36.91,38.95C37.06,51.6 48.57,58.16 63.79,60.09C79.01,62.02 92.62,57.27 95.18,44.18C95.76,41.22 95.6,37.35 95.09,34.45C94.67,32.06 95.46,29.59 97.15,27.84C99.17,25.74 100.39,22.81 100.19,19.5Z" style="fill:rgb(133,92,82);fill-rule:nonzero;"/>
                <path d="M100.19,19.5C99.94,15.22 97.09,11.4 93.06,9.95C89.79,8.78 86.52,9.19 83.89,10.67C82.69,11.34 81.25,11.45 80.01,10.83C78.09,9.87 74.76,8.57 70.02,7.97C65.3,7.37 61.65,7.89 59.46,8.41C58.04,8.75 56.58,8.25 55.55,7.21C53.57,5.24 50.84,4 47.73,4C42.6,4 38.05,7.74 37.03,12.77C36.39,15.9 37.14,18.94 38.82,21.3C40.28,23.37 40.57,26.08 39.63,28.44C38.68,30.82 36.87,36.05 36.91,38.95C37.06,51.6 48.57,58.16 63.79,60.09C79.01,62.02 92.62,57.27 95.18,44.18C95.76,41.22 95.6,37.35 95.09,34.45C94.67,32.06 95.46,29.59 97.15,27.84C99.17,25.74 100.39,22.81 100.19,19.5Z" style="fill:rgb(255,147,101);fill-opacity:0.3;fill-rule:nonzero;"/>
                <path d="M41.35,15.68C41.76,12.49 44.53,10.22 47.56,10.6C48.71,10.75 52.16,12.1 50.98,13.9C50.76,14.23 50.43,14.46 50.11,14.69C47.96,16.25 46.03,18.15 44.43,20.32C44.14,20.72 43.7,21.17 43.27,20.98C41.75,20.33 41.17,17.14 41.35,15.68Z" style="fill:rgb(109,74,65);fill-rule:nonzero;"/>
                <path d="M95.29,22.53C95.7,19.34 93.57,16.44 90.55,16.06C89.4,15.91 85.72,16.36 86.42,18.4C86.55,18.78 86.81,19.08 87.06,19.39C88.75,21.43 90.14,23.76 91.15,26.27C91.33,26.73 91.64,27.28 92.11,27.2C93.74,26.94 95.1,24 95.29,22.53Z" style="fill:rgb(109,74,65);fill-rule:nonzero;"/>
                <path d="M61.95,33.17C59,36.56 56.78,38.48 54.69,41.47C51.14,46.55 53.61,55.38 63.67,56.69C70.68,57.6 76.72,54.28 76.84,47.57C76.92,43.32 73.17,37.65 71.23,33.99C68.81,29.45 65.02,29.64 61.95,33.17Z" style="fill:rgb(247,147,41);fill-opacity:0.7;fill-rule:nonzero;"/>
                <g>
                    <g transform="matrix(0.141,-0.99,0.99,0.141,14.346,79.5189)">
                        <ellipse cx="53" cy="31.49" rx="4.78" ry="4.06" style="fill:rgb(62,39,35);"/>
                    </g>
                    <g transform="matrix(0.141,-0.99,0.99,0.141,34.5657,109.834)">
                        <ellipse cx="80.58" cy="35" rx="4.78" ry="4.06" style="fill:rgb(62,39,35);"/>
                    </g>
                </g>
                <path d="M57.59,47.22C59.49,52.83 68.85,54.05 72.2,49.09" style="fill:none;fill-rule:nonzero;stroke:rgb(62,39,35);stroke-width:2.45px;"/>
                <path d="M67.78,47.83C65.37,48.36 62.92,47.94 61.31,45.92C60.1,44.41 58.85,41.88 60.57,40.09C63.01,37.59 69.08,38.34 71.28,40.82C72.53,42.93 70.06,47.35 67.78,47.83Z" style="fill:rgb(62,39,35);fill-rule:nonzero;"/>
            </g>
        </g>
        <path d="M16.2,106.55C16.23,104.72 17.61,102.06 19.33,101.42C23.43,99.87 27.89,101.74 30.36,107.35C32.4,111.99 32.6,116.86 31.73,118.17C30.44,120.1 28.56,119.79 27.26,119.56C24.89,119.14 22.83,117.71 20.97,116.17C19.08,114.6 16.12,111.42 16.2,106.55Z" style="fill:rgb(247,147,41);fill-opacity:0.7;fill-rule:nonzero;"/>
        <path d="M111.76,106.47C111.7,104.64 110.28,102.01 108.56,101.38C104.44,99.89 100,101.82 97.62,107.47C95.65,112.14 95.87,116.43 96.14,117.34C96.98,120.15 99.61,119.88 100.9,119.63C103.26,119.17 105.3,117.71 107.14,116.15C109.01,114.57 111.91,111.35 111.76,106.47Z" style="fill:rgb(247,147,41);fill-opacity:0.7;fill-rule:nonzero;"/>
    </g>
</svg>
